X: 1151
M: 6/8
L: 1/8
K: D
[|\
d2z d2z | d>fe dBA | d>BB B2b | bag f>ed |\
d2z d2z | d>fe dBA | gab afd | def e2d |]
|:\
d>fa afd | b>ag f>ed | d>fa bc'd' | d>ed d>BA |\
d>fa afd | b>af ede | g>ab afd | def e2d :|
Promenade all.

